svgs/sharp-solid/face-smile-plus.svg

<svg xmlns="http://www.w3.org/2000/svg" viewBox="0 0 640 512"><!--! Font Awesome Pro 6.6.0 by @fontawesome - https://fontawesome.com License - https://fontawesome.com/license (Commercial License) Copyright 2024 Fonticons, Inc. --><path d="M568 0L520 0l0 24 0 48-48 0-24 0 0 48 24 0 48 0 0 48 0 24 48 0 0-24 0-48 48 0 24 0 0-48-24 0-48 0 0-48 0-24zM224 512a224 224 0 1 0 0-448 224 224 0 1 0 0 448zM144.4 208a32 32 0 1 1 0 64 32 32 0 1 1 0-64zm128 32a32 32 0 1 1 64 0 32 32 0 1 1 -64 0zM224 384c33.4 0 63.5-14.6 84-37.9l24 21.2C305.6 397.1 267 416 224 416s-81.6-18.9-108-48.7l24-21.2c20.5 23.3 50.6 37.9 84 37.9z"/></svg>

<svg xmlns="http://www.w3.org/2000/svg" viewBox="0 0 640 512"><!--! Font Awesome Pro 6.4.0 by @fontawesome - https://fontawesome.com License - https://fontawesome.com/license (Commercial License) Copyright 2023 Fonticons, Inc. --><path d="M568 0H520V24 72H472 448v48h24 48v48 24h48V168 120h48 24V72H616 568V24 0zM224 512a224 224 0 1 0 0-448 224 224 0 1 0 0 448zM144.4 208a32 32 0 1 1 0 64 32 32 0 1 1 0-64zm128 32a32 32 0 1 1 64 0 32 32 0 1 1 -64 0zM224 384c33.4 0 63.5-14.6 84-37.9l24 21.2C305.6 397.1 267 416 224 416s-81.6-18.9-108-48.7l24-21.2c20.5 23.3 50.6 37.9 84 37.9z"/></svg>
